fs/app_title_20_regular.svg

<svg viewBox="0 0 20 20" fill="none" xmlns="http://www.w3.org/2000/svg" height="1em" width="1em">
  <path d="M4 6C4 4.34315 5.34315 3 7 3H13C14.6569 3 16 4.34315 16 6V12C16 13.6569 14.6569 15 13 15H7C5.34315 15 4 13.6569 4 12V6ZM7 4C5.89543 4 5 4.89543 5 6V12C5 13.1046 5.89543 14 7 14H13C14.1046 14 15 13.1046 15 12V6C15 4.89543 14.1046 4 13 4H7ZM4 17.5C4 17.2239 4.22386 17 4.5 17H15.5C15.7761 17 16 17.2239 16 17.5C16 17.7761 15.7761 18 15.5 18H4.5C4.22386 18 4 17.7761 4 17.5Z" fill="#212121"/>
</svg>

<svg viewBox="0 0 20 20" fill="none" xmlns="http://www.w3.org/2000/svg" height="1em" width="1em">
  <path d="M4 6a3 3 0 0 1 3-3h6a3 3 0 0 1 3 3v6a3 3 0 0 1-3 3H7a3 3 0 0 1-3-3V6Zm3-2a2 2 0 0 0-2 2v6a2 2 0 0 0 2 2h6a2 2 0 0 0 2-2V6a2 2 0 0 0-2-2H7ZM4 17.5a.5.5 0 0 1 .5-.5h11a.5.5 0 0 1 0 1h-11a.5.5 0 0 1-.5-.5Z" fill="#212121"/>
</svg>
